docs/assets/icons/remote-desktop.svg

<?xml version="1.0" encoding="UTF-8" standalone="no"?>
<svg
   id="mdi-remote-desktop"
   viewBox="0 0 24 22"
   version="1.1"
   sodipodi:docname="remote-desktop.svg"
   inkscape:version="1.4.3 (0d15f75042, 2025-12-25)"
   width="24"
   height="22"
   xmlns:inkscape="http://www.inkscape.org/namespaces/inkscape"
   xmlns:sodipodi="http://sodipodi.sourceforge.net/DTD/sodipodi-0.dtd"
   xmlns="http://www.w3.org/2000/svg"
   xmlns:svg="http://www.w3.org/2000/svg">
  <defs
     id="defs1">
    <filter
       style="color-interpolation-filters:sRGB"
       inkscape:label="Drop Shadow"
       id="filter3"
       x="-0.032727275"
       y="-0.036000002"
       width="1.0881819"
       height="1.097">
      <feFlood
         result="flood"
         in="SourceGraphic"
         flood-opacity="0.498039"
         flood-color="rgb(0,0,0)"
         id="feFlood2" />
      <feGaussianBlur
         result="blur"
         in="SourceGraphic"
         stdDeviation="0.300000"
         id="feGaussianBlur2" />
      <feOffset
         result="offset"
         in="blur"
         dx="0.500000"
         dy="0.500000"
         id="feOffset2" />
      <feComposite
         result="comp1"
         operator="in"
         in="flood"
         in2="offset"
         id="feComposite2" />
      <feComposite
         result="comp2"
         operator="over"
         in="SourceGraphic"
         in2="comp1"
         id="feComposite3" />
    </filter>
    <filter
       style="color-interpolation-filters:sRGB"
       inkscape:label="Drop Shadow"
       id="filter5"
       x="-0.081818186"
       y="-0.072000004"
       width="1.2204546"
       height="1.194">
      <feFlood
         result="flood"
         in="SourceGraphic"
         flood-opacity="0.498039"
         flood-color="rgb(0,0,0)"
         id="feFlood3" />
      <feGaussianBlur
         result="blur"
         in="SourceGraphic"
         stdDeviation="0.300000"
         id="feGaussianBlur3" />
      <feOffset
         result="offset"
         in="blur"
         dx="0.500000"
         dy="0.500000"
         id="feOffset3" />
      <feComposite
         result="comp1"
         operator="in"
         in="flood"
         in2="offset"
         id="feComposite4" />
      <feComposite
         result="comp2"
         operator="over"
         in="SourceGraphic"
         in2="comp1"
         id="feComposite5" />
    </filter>
  </defs>
  <sodipodi:namedview
     id="namedview1"
     pagecolor="#505050"
     bordercolor="#ffffff"
     borderopacity="1"
     inkscape:showpageshadow="0"
     inkscape:pageopacity="0"
     inkscape:pagecheckerboard="1"
     inkscape:deskcolor="#505050"
     inkscape:zoom="34.353604"
     inkscape:cx="6.1274503"
     inkscape:cy="10.159051"
     inkscape:window-width="2560"
     inkscape:window-height="1368"
     inkscape:window-x="0"
     inkscape:window-y="0"
     inkscape:window-maximized="1"
     inkscape:current-layer="mdi-remote-desktop" />
  <g
     id="g1"
     transform="translate(-0.00436645,-1.0039697)">
    <path
       d="M 15.241341,4.4510302 11.46487,8.2274998 15.241341,12.003969 16.751929,10.493381 14.486046,8.2274998 16.751929,5.9616181 M 8.7673924,7.6880042 7.2568045,9.1985919 9.5226863,11.464474 7.2568045,13.730356 8.7673924,15.240944 12.543862,11.464474"
       id="path1"
       inkscape:label="arrows"
       sodipodi:nodetypes="cccccccccccc"
       style="display:inline;fill:#0091eb;fill-opacity:1;stroke-width:1.07899" />
    <path
       d="m 2.2934446,1.2140563 c -1.191821,0 -2.15798271,0.9661617 -2.15798271,2.1579826 V 16.319935 c 0,1.19768 0.97109221,2.157982 2.15798271,2.157982 H 9.8463838 V 20.6359 H 7.6884011 v 2.157983 H 16.320332 V 20.6359 h -2.157983 v -2.157983 h 7.55294 c 1.191819,0 2.157982,-0.966162 2.157982,-2.157982 V 3.3720389 c 0,-1.1918209 -0.966163,-2.1579826 -2.157982,-2.1579826 M 2.2934446,3.3720389 H 21.715289 V 16.319935 H 2.2934446"
       id="path2"
       sodipodi:nodetypes="csssccccccccsssccccc"
       inkscape:label="monitor"
       style="display:inline;fill:#4cae4f;fill-opacity:1;stroke-width:1.07899" />
  </g>
</svg>

<?xml version="1.0" encoding="UTF-8"?>
<svg version="1.1" viewBox="0 0 24 22" xmlns="http://www.w3.org/2000/svg"><g transform="matrix(.97356 0 0 .97356 .31306 -.68655)"><path d="m15.241 4.451-3.7765 3.7765 3.7765 3.7765 1.5106-1.5106-2.2659-2.2659 2.2659-2.2659m-7.9845 1.7264-1.5106 1.5106 2.2659 2.2659-2.2659 2.2659 1.5106 1.5106 3.7765-3.7765" fill="#4cae4f" stroke-width="1.079"/><path d="m2.2934 1.2149c-1.1918 0-2.1582.96443-2.1582 2.1562v12.949c0 1.1977.97131 2.1582 2.1582 2.1582h7.5527v2.1582h-2.1582v2.1562h8.6328v-2.1562h-2.1582v-2.1582h7.5527c1.1918 0 2.1582-.96638 2.1582-2.1582v-12.949c0-1.1918-.96638-2.1562-2.1582-2.1562zm0 2.1562h19.422v12.949h-19.422z" fill="#0091eb" stroke="#4cae4f" stroke-linecap="round" stroke-linejoin="round" stroke-width=".41086"/></g></svg>
